app/images/tender-online.svg

<svg width="131" height="60" viewBox="0 0 131 60" fill="none" xmlns="http://www.w3.org/2000/svg">
<g filter="url(#filter0_d)">
<rect x="4" y="2" width="123" height="52" rx="26" fill="#303030"/>
</g>
<path d="M71.9287 33.746C72.7388 33.5564 73.3117 32.834 73.3117 32.002V21.1322C73.3117 19.5365 71.3824 18.7374 70.2541 19.8657C69.9182 20.2016 69.7295 20.6572 69.7295 21.1322V32.002C69.7295 33.1561 70.805 34.0089 71.9287 33.746Z" fill="#DFF300"/>
<path d="M83.9052 28.8073C84.4447 28.4836 84.7748 27.9006 84.7748 27.2715V21.8488C84.7748 21.3737 84.5861 20.9182 84.2502 20.5823C83.1219 19.4539 81.1926 20.2531 81.1926 21.8488V27.2715C81.1926 28.6637 82.7114 29.5236 83.9052 28.8073Z" fill="#DFF300"/>
<path d="M77.8826 31.8743C78.581 31.6117 79.0434 30.9438 79.0434 30.1978V16.1172C79.0434 15.6422 78.8547 15.1866 78.5188 14.8507C77.3905 13.7224 75.4612 14.5215 75.4612 16.1172V30.1978C75.4612 31.449 76.7115 32.3147 77.8826 31.8743Z" fill="#DFF300"/>
<path d="M92.3264 16.8072C92.0745 16.3996 90.1482 18.8366 90.1482 19.3158C90.1482 26.4802 74.3865 35.0774 62.207 35.0774C75.8194 35.0774 93.0139 27.913 93.0139 19.3158C93.0139 18.3409 92.7619 17.5119 92.3264 16.8072Z" fill="#4BC6EC"/>
<path d="M32.0055 32.8206C31.5049 32.8206 31.0992 32.4148 31.0992 31.9143V22.9086C31.0992 22.329 30.6293 21.8591 30.0496 21.8591H29.8526C29.3817 21.8591 29 21.4774 29 21.0065C29 20.5356 29.3817 20.1539 29.8526 20.1539H34.1584C34.6292 20.1539 35.0109 20.5356 35.0109 21.0065C35.0109 21.4774 34.6292 21.8591 34.1584 21.8591H33.9613C33.3817 21.8591 32.9118 22.329 32.9118 22.9086V31.9143C32.9118 32.4148 32.506 32.8206 32.0055 32.8206Z" fill="white"/>
<path d="M39.8436 27.1914C39.8493 28.1817 39.048 28.9876 38.0576 28.9876H37.4968C36.8202 28.9876 36.2717 29.5361 36.2717 30.2127C36.2636 30.3336 36.2811 30.4547 36.3231 30.5683C36.3651 30.6819 36.4306 30.7853 36.5153 30.8719C36.5883 30.9377 36.6709 30.9904 36.7595 31.0287C37.01 31.137 37.3111 31.1619 37.5627 31.0562C37.6897 31.0029 37.7987 30.914 37.8765 30.8002C38.0606 30.4862 38.3521 30.1984 38.7161 30.1984H38.9571C39.4833 30.1984 39.9354 30.6243 39.7731 31.1248C39.7615 31.1608 39.749 31.1965 39.7358 31.232C39.6126 31.562 39.4237 31.8636 39.1805 32.1185C38.9393 32.3704 38.6492 32.5703 38.3279 32.7059C37.9707 32.8501 37.5882 32.9207 37.2031 32.9137C36.7026 32.9279 36.2075 32.8066 35.7702 32.5627C35.383 32.3382 35.0656 32.0109 34.8532 31.617C34.716 31.363 34.6262 31.0863 34.5881 30.8002C34.537 30.4636 34.513 30.1234 34.5164 29.7829V26.8383C34.513 26.4978 34.537 26.1576 34.5881 25.821C34.6262 25.5349 34.716 25.2581 34.8532 25.0042C35.0458 24.6156 35.3374 24.2845 35.6986 24.0442C36.1358 23.8002 36.6309 23.679 37.1314 23.6931C37.5194 23.6874 37.9045 23.7605 38.2634 23.9081C38.5893 24.039 38.8827 24.2395 39.1231 24.4955C39.6064 25.0499 39.8623 25.7665 39.8396 26.5016L39.8436 27.1914ZM36.2717 26.6664C36.2717 27.157 36.6695 27.5547 37.1601 27.5547C37.6507 27.5547 38.0485 27.157 38.0485 26.6664V26.5374C38.0698 26.2589 37.9854 25.9827 37.8121 25.7636C37.7276 25.6773 37.6259 25.6096 37.5136 25.5652C37.4012 25.5208 37.2808 25.5005 37.1601 25.5057C37.0404 25.4997 36.9208 25.5196 36.8095 25.5641C36.6982 25.6086 36.5978 25.6767 36.5153 25.7636C36.3368 25.9802 36.2495 26.2576 36.2717 26.5374V26.6664Z" fill="white"/>
<path d="M42.0896 32.8206C41.5871 32.8206 41.1797 32.4132 41.1797 31.9107V24.7069C41.1797 24.2063 41.5855 23.8006 42.086 23.8006H42.5481C42.7934 23.8006 42.9923 23.9995 42.9923 24.2448V24.6656C42.9923 24.6785 43.0028 24.689 43.0157 24.689C43.0234 24.689 43.0307 24.6851 43.0351 24.6787C43.225 24.4007 43.4657 24.1611 43.7445 23.9725C44.0479 23.7794 44.4024 23.682 44.7619 23.6931C45.0056 23.6886 45.2482 23.7274 45.4783 23.8077C45.7051 23.887 45.9109 24.0169 46.0801 24.1875C46.2737 24.3922 46.4204 24.6367 46.51 24.9039C46.6244 25.233 46.6778 25.5802 46.6676 25.9284V31.9143C46.6676 32.4306 46.249 32.8492 45.7327 32.8492C45.2163 32.8492 44.7977 32.4306 44.7977 31.9143V26.5732C44.8131 26.2943 44.7322 26.0186 44.5684 25.7923C44.4888 25.6961 44.3876 25.6201 44.2731 25.5703C44.0455 25.4713 43.7744 25.4647 43.5433 25.5552C43.5313 25.5599 43.5194 25.5649 43.5076 25.5703C43.2577 25.6827 43.1155 25.9471 43.0496 26.213C43.0062 26.3885 42.989 26.5703 42.9994 26.7523V31.9107C42.9994 32.4132 42.5921 32.8206 42.0896 32.8206Z" fill="white"/>
<path d="M51.9498 32.8206C51.822 32.8206 51.7184 32.717 51.7184 32.5892V32.4936C51.7184 32.3168 51.5014 32.2321 51.3817 32.3621C51.2759 32.4755 51.1554 32.5743 51.0234 32.6558C50.8859 32.744 50.7363 32.8115 50.5793 32.8564C50.3869 32.9022 50.1895 32.9239 49.9918 32.9209C49.6731 32.9512 49.3527 32.8864 49.0709 32.7346C48.7891 32.5829 48.5585 32.351 48.4084 32.0683C48.293 31.8438 48.2155 31.6017 48.1792 31.3519C48.1238 30.958 48.0999 30.5603 48.1075 30.1626V26.695C48.0998 26.2169 48.1166 25.7386 48.1577 25.2621C48.1812 24.9893 48.2695 24.7261 48.4153 24.4943C48.5611 24.2625 48.7602 24.0689 48.9959 23.9296C49.3032 23.7565 49.6542 23.6768 50.0061 23.7003C50.339 23.6942 50.6676 23.7757 50.959 23.9367C51.2449 24.1165 51.4873 24.3575 51.6686 24.6424C51.6728 24.6491 51.6802 24.6532 51.6882 24.6532C51.7009 24.6532 51.7112 24.6428 51.7112 24.6301V21.0602C51.7112 20.5597 52.117 20.1539 52.6175 20.1539C53.1181 20.1539 53.5238 20.5597 53.5238 21.0602V31.9179C53.5238 32.4164 53.1197 32.8206 52.6211 32.8206H51.9498ZM49.9201 29.8832C49.9058 30.1937 49.9803 30.5019 50.1351 30.7716C50.205 30.8847 50.305 30.9761 50.424 31.0355C50.5429 31.095 50.6761 31.1202 50.8085 31.1083C50.935 31.1131 51.0607 31.0876 51.1754 31.0341C51.29 30.9805 51.3902 30.9003 51.4676 30.8002C51.6416 30.5671 51.7301 30.2813 51.7184 29.9906V26.4873C51.7257 26.3566 51.7066 26.2259 51.6623 26.1028C51.618 25.9797 51.5494 25.8668 51.4605 25.7708C51.3779 25.6805 51.2771 25.6089 51.1647 25.5607C50.9411 25.4649 50.6769 25.4426 50.4486 25.5267C50.4329 25.5324 50.4175 25.5388 50.4022 25.5456C50.2749 25.6029 50.1671 25.6961 50.0921 25.8138C49.9701 26.0329 49.906 26.2795 49.9058 26.5302L49.9201 29.8832Z" fill="white"/>
<path d="M60.2778 27.1992C60.275 28.1878 59.4727 28.9877 58.4841 28.9877H57.9155C57.2389 28.9877 56.6904 29.5362 56.6904 30.2128C56.6827 30.333 56.6997 30.4535 56.7404 30.5668C56.781 30.6802 56.8445 30.784 56.9269 30.8719C57.007 30.9428 57.0982 30.9985 57.1958 31.0373C57.4377 31.1335 57.7232 31.1513 57.9613 31.046C58.0813 30.9929 58.1844 30.9079 58.2594 30.8003C58.4431 30.482 58.7403 30.1984 59.1078 30.1984H59.3309C59.8622 30.1984 60.3188 30.6288 60.1532 31.1335C60.1424 31.1666 60.1309 31.1994 60.1187 31.232C59.9955 31.5621 59.8066 31.8637 59.5634 32.1185C59.3222 32.3704 59.0321 32.5703 58.7108 32.706C58.2962 32.8645 57.8527 32.9337 57.4095 32.9091C56.9663 32.8844 56.5332 32.7663 56.1388 32.5627C55.7532 32.3362 55.4362 32.0094 55.2217 31.617C55.0877 31.3617 54.9981 31.0856 54.9567 30.8003C54.9091 30.4632 54.8852 30.1233 54.885 29.7829V26.8383C54.8852 26.498 54.9091 26.158 54.9567 25.821C55.0059 25.4564 55.1381 25.108 55.343 24.8025C55.5479 24.497 55.8202 24.2425 56.1388 24.0586C56.5765 23.8156 57.0712 23.6944 57.5717 23.7075C57.9572 23.7027 58.3398 23.7758 58.6965 23.9224C59.0254 24.0516 59.3215 24.2523 59.5634 24.5099C60.0472 25.064 60.3032 25.7807 60.2798 26.5159L60.2778 27.1992ZM56.6904 26.6664C56.6904 27.157 57.0882 27.5548 57.5788 27.5548C58.0695 27.5548 58.4672 27.157 58.4672 26.6664V26.5374C58.4894 26.2577 58.4021 25.9802 58.2236 25.7637C58.1411 25.6767 58.0408 25.6087 57.9295 25.5641C57.8182 25.5196 57.6985 25.4997 57.5788 25.5058C57.458 25.4996 57.3373 25.5195 57.2248 25.564C57.1124 25.6084 57.0108 25.6766 56.9269 25.7637C56.7536 25.9827 56.6691 26.259 56.6904 26.5374V26.6664Z" fill="white"/>
<path d="M62.5151 32.8206C62.0126 32.8206 61.6052 32.4132 61.6052 31.9107V24.7105C61.6052 24.2079 62.0126 23.8006 62.5151 23.8006H63.1352C63.2953 23.8006 63.425 23.9303 63.425 24.0903C63.425 24.3442 63.7355 24.4826 63.9406 24.3331C64.1215 24.2013 64.3105 24.0809 64.5068 23.9725C64.6882 23.8849 64.8778 23.8173 65.0722 23.7704C65.4835 23.6712 65.8251 24.0291 65.8251 24.4522V25.0477C65.8251 25.3182 65.5439 25.5062 65.2734 25.5057C65.0643 25.5098 64.8568 25.5435 64.6573 25.606C64.4374 25.6713 64.2345 25.7838 64.0626 25.9356C63.8627 26.0973 63.7033 26.3033 63.5969 26.5374C63.4743 26.8296 63.4157 27.1448 63.425 27.4616V31.9107C63.425 32.4132 63.0176 32.8206 62.5151 32.8206Z" fill="white"/>
<path d="M68.9412 39.4477C68.9378 39.1072 68.9618 38.767 69.0129 38.4303C69.0475 38.1344 69.1374 37.8476 69.278 37.5849C69.4904 37.191 69.8078 36.8637 70.195 36.6392C70.6392 36.4145 71.1301 36.2974 71.6279 36.2974C72.1257 36.2974 72.6166 36.4145 73.0608 36.6392C73.4596 36.8605 73.7893 37.1878 74.0136 37.5849C74.1476 37.8402 74.2373 38.1164 74.2787 38.4017C74.3263 38.7387 74.3502 39.0786 74.3504 39.419V42.3851C74.3502 42.7254 74.3263 43.0654 74.2787 43.4024C74.2294 43.767 74.0973 44.1154 73.8923 44.4209C73.6874 44.7265 73.4152 44.9809 73.0966 45.1649C72.6524 45.3896 72.1615 45.5067 71.6637 45.5067C71.1659 45.5067 70.675 45.3896 70.2308 45.1649C69.8452 44.9384 69.5283 44.6115 69.3138 44.2192C69.1766 43.9652 69.0868 43.6885 69.0487 43.4024C68.9976 43.0658 68.9736 42.7256 68.9771 42.3851L68.9412 39.4477ZM70.7538 42.7003C70.7316 42.9801 70.8189 43.2575 70.9974 43.4741C71.0799 43.561 71.1803 43.6291 71.2916 43.6736C71.4029 43.7181 71.5225 43.738 71.6422 43.732C71.763 43.7381 71.8837 43.7183 71.9962 43.6738C72.1087 43.6293 72.2103 43.5612 72.2942 43.4741C72.4675 43.255 72.5519 42.9788 72.5306 42.7003V39.1611C72.5519 38.8826 72.4675 38.6063 72.2942 38.3873C72.2103 38.3002 72.1087 38.2321 71.9962 38.1876C71.8837 38.1431 71.763 38.1233 71.6422 38.1294C71.5225 38.1234 71.4029 38.1433 71.2916 38.1878C71.1803 38.2323 71.0799 38.3004 70.9974 38.3873C70.8189 38.6039 70.7316 38.8813 70.7538 39.1611V42.7003Z" fill="white"/>
<path d="M76.5894 45.4658C76.0889 45.4658 75.6831 45.06 75.6831 44.5595V37.3234C75.6831 36.8229 76.0889 36.4171 76.5894 36.4171H77.2907C77.4039 36.4171 77.4957 36.5089 77.4957 36.6221C77.4957 36.8243 77.7844 36.9236 77.9356 36.7894C78.0228 36.7121 78.1152 36.6403 78.2121 36.5747C78.515 36.3811 78.8704 36.286 79.2295 36.3025C79.4612 36.3021 79.6913 36.3408 79.9101 36.4171C80.1394 36.4911 80.3464 36.6217 80.5119 36.7968C80.7055 37.0016 80.8522 37.2461 80.9418 37.5133C81.0553 37.8401 81.1087 38.1848 81.0994 38.5306V44.563C81.0994 45.0616 80.6952 45.4658 80.1967 45.4658C79.6981 45.4658 79.294 45.0616 79.294 44.563V39.1969C79.3099 38.9179 79.2289 38.642 79.0647 38.416C78.985 38.3198 78.8839 38.2438 78.7694 38.194C78.5418 38.095 78.2706 38.0884 78.0396 38.1789C78.0276 38.1836 78.0157 38.1886 78.0039 38.194C77.754 38.3064 77.6108 38.5703 77.5447 38.8363C77.501 39.0118 77.4843 39.1938 77.4957 39.376V44.5595C77.4957 45.06 77.0899 45.4658 76.5894 45.4658Z" fill="white"/>
<path d="M82.4964 33.6768C82.4964 33.1763 82.9022 32.7705 83.4027 32.7705C83.9033 32.7705 84.309 33.1763 84.309 33.6768V42.8938C84.2814 43.1163 84.3292 43.3406 84.4431 43.5315C84.4753 43.5853 84.5202 43.6311 84.5727 43.6653C84.8852 43.8692 85.2117 44.1571 85.2117 44.5302V44.7146C85.2117 45.1829 84.8339 45.5711 84.3695 45.5108C84.2726 45.4982 84.176 45.4832 84.0798 45.4658C83.7688 45.4067 83.4765 45.274 83.2272 45.0789C82.983 44.895 82.7946 44.647 82.6827 44.3625C82.5423 43.9476 82.4792 43.5105 82.4964 43.0729V33.6768Z" fill="white"/>
<path d="M86.8311 34.5903C86.3286 34.5903 85.9141 34.1829 85.9141 33.6804C85.9141 33.1779 86.3286 32.7705 86.8311 32.7705C87.3336 32.7705 87.7481 33.1779 87.7481 33.6804C87.7481 34.1829 87.3336 34.5903 86.8311 34.5903ZM86.8168 45.4513C86.316 45.4434 85.9141 45.0352 85.9141 44.5343V37.3342C85.9141 36.8278 86.3246 36.4172 86.8311 36.4172C87.3376 36.4172 87.7481 36.8278 87.7481 37.3342V44.5343C87.7481 45.0464 87.3288 45.4593 86.8168 45.4513Z" fill="white"/>
<path d="M90.1231 45.4657C89.6226 45.4657 89.2168 45.0599 89.2168 44.5594V37.3269C89.2168 36.8244 89.6242 36.4171 90.1267 36.4171H90.8343C90.946 36.4171 91.0365 36.5076 91.0365 36.6193C91.0365 36.8198 91.3262 36.9186 91.4767 36.7862C91.5637 36.7096 91.656 36.6389 91.753 36.5747C92.0556 36.388 92.408 36.298 92.7632 36.3168C92.9925 36.3163 93.2203 36.3551 93.4366 36.4314C93.6676 36.5062 93.8768 36.6366 94.0456 36.8111C94.237 37.0163 94.3812 37.2608 94.4683 37.5276C94.5843 37.8539 94.6401 38.1986 94.6331 38.5449V44.563C94.6331 45.0615 94.2289 45.4657 93.7304 45.4657C93.2318 45.4657 92.8276 45.0615 92.8276 44.563V39.1969C92.8473 38.9175 92.766 38.6403 92.5984 38.4159C92.5191 38.3193 92.418 38.243 92.3034 38.1931C92.0757 38.0942 91.8041 38.0855 91.5727 38.1754C91.5604 38.1802 91.5482 38.1853 91.5361 38.1907C91.4098 38.2475 91.3015 38.3378 91.2228 38.4518C91.0762 38.7367 91.0093 39.0561 91.0294 39.376V44.5594C91.0294 45.0599 90.6236 45.4657 90.1231 45.4657Z" fill="white"/>
<path d="M101.391 39.8358C101.374 40.8213 100.57 41.6114 99.5844 41.6114H99.0103C98.3297 41.6114 97.778 42.1631 97.778 42.8436C97.7699 42.9645 97.7874 43.0856 97.8294 43.1992C97.8713 43.3128 97.9368 43.4163 98.0216 43.5028C98.0946 43.5686 98.1772 43.6213 98.2658 43.6596C98.5163 43.7679 98.8173 43.7928 99.0689 43.6872C99.196 43.6338 99.305 43.5449 99.3828 43.4311C99.5671 43.1129 99.8615 42.8222 100.229 42.8222H100.444C100.957 42.8222 101.398 43.2364 101.245 43.7263C101.231 43.771 101.216 43.8154 101.2 43.8594C101.077 44.1907 100.888 44.4935 100.644 44.7494C100.402 44.9992 100.112 45.1967 99.7912 45.3297C99.4345 45.4763 99.0519 45.5494 98.6664 45.5446C98.1658 45.5588 97.6708 45.4375 97.2335 45.1936C96.8599 44.9612 96.5537 44.6352 96.3451 44.2479C96.2079 43.994 96.1181 43.7172 96.08 43.4311C96.0289 43.0945 96.005 42.7543 96.0084 42.4138V39.4477C96.005 39.1072 96.0289 38.767 96.08 38.4304C96.1147 38.1345 96.2046 37.8477 96.3451 37.585C96.5596 37.1926 96.8765 36.8658 97.2621 36.6393C97.6994 36.3953 98.1945 36.2741 98.695 36.2882C99.0825 36.2802 99.4676 36.3509 99.827 36.496C100.15 36.6322 100.442 36.832 100.687 37.0835C101.176 37.6371 101.433 38.3583 101.403 39.0967L101.391 39.8358ZM97.778 39.2829C97.778 39.7775 98.1789 40.1785 98.6735 40.1785C99.1681 40.1785 99.5691 39.7775 99.5691 39.2829V39.1611C99.5904 38.8827 99.506 38.6064 99.3327 38.3874C99.2488 38.3003 99.1471 38.2322 99.0347 38.1877C98.9222 38.1432 98.8015 38.1233 98.6807 38.1295C98.561 38.1234 98.4414 38.1433 98.3301 38.1879C98.2188 38.2324 98.1184 38.3004 98.0359 38.3874C97.8523 38.6018 97.7597 38.8795 97.778 39.1611V39.2829Z" fill="white"/>
<defs>
<filter id="filter0_d" x="0" y="0" width="131" height="60" filterUnits="userSpaceOnUse" color-interpolation-filters="sRGB">
<feFlood flood-opacity="0" result="BackgroundImageFix"/>
<feColorMatrix in="SourceAlpha" type="matrix" values="0 0 0 0 0 0 0 0 0 0 0 0 0 0 0 0 0 0 127 0"/>
<feOffset dy="2"/>
<feGaussianBlur stdDeviation="2"/>
<feColorMatrix type="matrix" values="0 0 0 0 0 0 0 0 0 0 0 0 0 0 0 0 0 0 0.24 0"/>
<feBlend mode="normal" in2="BackgroundImageFix" result="effect1_dropShadow"/>
<feBlend mode="normal" in="SourceGraphic" in2="effect1_dropShadow" result="shape"/>
</filter>
</defs>
</svg>

<svg width="131" height="60" fill="none" xmlns="http://www.w3.org/2000/svg"><g filter="url(#filter0_d)"><rect x="4" y="2" width="123" height="52" rx="26" fill="#303030"/></g><path d="M71.929 33.746a1.791 1.791 0 001.383-1.744v-10.87c0-1.596-1.93-2.395-3.058-1.266a1.791 1.791 0 00-.525 1.266v10.87a1.791 1.791 0 002.2 1.744zM83.905 28.807c.54-.323.87-.906.87-1.535v-5.423c0-.475-.189-.93-.525-1.267-1.128-1.128-3.057-.329-3.057 1.267v5.422c0 1.393 1.518 2.253 2.712 1.536zM77.883 31.874a1.791 1.791 0 001.16-1.676v-14.08c0-.476-.188-.931-.524-1.267-1.129-1.129-3.058-.33-3.058 1.266v14.08a1.791 1.791 0 002.422 1.677z" fill="#DFF300"/><path d="M92.326 16.807c-.251-.407-2.178 2.03-2.178 2.509 0 7.164-15.761 15.761-27.941 15.761 13.612 0 30.807-7.164 30.807-15.761 0-.975-.252-1.804-.688-2.509z" fill="#4BC6EC"/><path d="M32.005 32.82a.906.906 0 01-.906-.906V22.91c0-.58-.47-1.05-1.05-1.05h-.196a.853.853 0 110-1.705h4.305a.853.853 0 010 1.705h-.197c-.58 0-1.05.47-1.05 1.05v9.005c0 .5-.405.907-.906.907zM39.844 27.191a1.786 1.786 0 01-1.786 1.797h-.561c-.677 0-1.225.548-1.225 1.225a.86.86 0 00.243.659.895.895 0 00.245.157c.25.108.551.133.803.027a.716.716 0 00.313-.256c.185-.314.476-.602.84-.602h.241c.526 0 .978.426.816.927a2.603 2.603 0 01-.593.994 2.557 2.557 0 01-.852.587c-.357.144-.74.215-1.125.208a2.78 2.78 0 01-1.433-.351 2.422 2.422 0 01-1.182-1.763 6.355 6.355 0 01-.072-1.017v-2.945c-.003-.34.021-.68.072-1.017.038-.286.128-.563.265-.817.193-.388.484-.72.846-.96a2.78 2.78 0 011.432-.35c.388-.007.773.067 1.132.214.326.131.62.331.86.587.483.555.74 1.271.717 2.007l.004.69zm-3.572-.525a.888.888 0 001.776 0v-.129a1.11 1.11 0 00-.236-.773.861.861 0 00-.652-.258.832.832 0 00-.645.258 1.082 1.082 0 00-.243.773v.13zM42.09 32.82a.91.91 0 01-.91-.91v-7.203c0-.5.406-.906.906-.906h.462c.245 0 .444.199.444.444v.42a.023.023 0 00.043.014c.19-.278.43-.518.71-.706.303-.194.657-.291 1.017-.28.244-.004.486.034.716.115.227.079.433.209.602.38.194.204.34.449.43.716.114.329.168.676.158 1.024v5.986a.935.935 0 01-1.87 0v-5.34a1.217 1.217 0 00-.23-.782.794.794 0 00-.295-.222.973.973 0 00-.765 0c-.25.113-.393.377-.458.643-.044.175-.061.357-.05.54v5.158a.91.91 0 01-.91.91zM51.95 32.82a.231.231 0 01-.232-.23v-.096a.194.194 0 00-.336-.132 1.74 1.74 0 01-.359.294 1.676 1.676 0 01-.444.2c-.192.046-.39.068-.587.065a1.619 1.619 0 01-1.584-.853 2.286 2.286 0 01-.229-.716 7.51 7.51 0 01-.072-1.19v-3.467c-.007-.478.01-.956.05-1.433a1.72 1.72 0 01.839-1.332 1.812 1.812 0 011.01-.23c.333-.006.662.076.953.237.286.18.528.42.71.705a.023.023 0 00.042-.012v-3.57a.906.906 0 011.813 0v10.858a.903.903 0 01-.903.903h-.671zm-2.03-2.937c-.014.31.06.619.215.889a.715.715 0 00.674.336.796.796 0 00.659-.308c.174-.233.262-.519.25-.81v-3.503a.975.975 0 00-.258-.716.86.86 0 00-.295-.21.986.986 0 00-.763-.015.716.716 0 00-.31.268c-.122.219-.186.465-.186.716l.014 3.353zM60.278 27.2a1.794 1.794 0 01-1.794 1.788h-.569c-.676 0-1.225.548-1.225 1.225a.88.88 0 00.237.659c.08.07.171.127.269.165.242.097.527.114.765.009a.717.717 0 00.298-.246c.184-.318.481-.602.849-.602h.223c.531 0 .988.43.822.936-.01.033-.022.065-.034.098-.123.33-.312.632-.556.886a2.559 2.559 0 01-.852.588 3.155 3.155 0 01-2.572-.143 2.472 2.472 0 01-.917-.946 2.543 2.543 0 01-.265-.817 7.307 7.307 0 01-.072-1.017v-2.945c0-.34.024-.68.072-1.017a2.406 2.406 0 011.182-1.762 2.8 2.8 0 011.433-.352c.385-.004.768.069 1.124.215.33.13.626.33.867.588.484.554.74 1.27.717 2.006l-.002.683zm-3.588-.534a.888.888 0 001.777 0v-.129a1.082 1.082 0 00-.243-.773.831.831 0 00-.645-.258.845.845 0 00-.652.258 1.11 1.11 0 00-.237.773v.13zM62.515 32.82a.91.91 0 01-.91-.91v-7.2a.91.91 0 01.91-.91h.62c.16 0 .29.13.29.29 0 .254.31.393.516.243.18-.132.37-.252.566-.36.181-.088.37-.156.565-.203.412-.099.753.26.753.682v.596c0 .27-.281.458-.552.458-.209.004-.416.038-.616.1-.22.065-.422.178-.594.33-.2.161-.36.367-.466.601a2.22 2.22 0 00-.172.925v4.449a.91.91 0 01-.91.91zM68.941 39.448c-.003-.34.02-.681.072-1.018.034-.296.124-.582.265-.845.212-.394.53-.721.917-.946a3.175 3.175 0 012.866 0c.399.221.728.549.953.946.134.255.223.531.265.817.047.337.071.677.071 1.017v2.966c0 .34-.024.68-.071 1.017a2.406 2.406 0 01-1.182 1.763 3.175 3.175 0 01-2.866 0 2.472 2.472 0 01-.917-.946 2.38 2.38 0 01-.265-.817 6.343 6.343 0 01-.072-1.017l-.036-2.937zm1.813 3.252c-.022.28.065.557.243.774a.831.831 0 00.645.258.846.846 0 00.652-.258 1.11 1.11 0 00.237-.774v-3.539a1.11 1.11 0 00-.237-.774.846.846 0 00-.652-.258.832.832 0 00-.645.258 1.082 1.082 0 00-.243.774v3.54zM76.59 45.466a.906.906 0 01-.907-.907v-7.236c0-.5.406-.906.906-.906h.702c.113 0 .205.092.205.205 0 .202.288.302.44.167.087-.077.18-.149.276-.214a1.74 1.74 0 011.017-.273c.232 0 .462.039.681.115.23.074.436.205.602.38.194.205.34.45.43.716.113.327.167.672.157 1.018v6.032a.903.903 0 11-1.805 0v-5.366a1.211 1.211 0 00-.23-.781.795.795 0 00-.295-.222.973.973 0 00-.765 0c-.25.112-.393.376-.46.642-.043.176-.06.358-.048.54v5.184c0 .5-.406.906-.907.906zM82.496 33.677a.906.906 0 011.813 0v9.217c-.028.222.02.447.134.638.032.053.077.1.13.133.312.204.639.492.639.865v.185c0 .468-.378.856-.843.796a5.908 5.908 0 01-.29-.045 1.985 1.985 0 01-.852-.387 1.655 1.655 0 01-.544-.717 3.584 3.584 0 01-.187-1.29v-9.395zM86.831 34.59a.916.916 0 01-.917-.91c0-.502.415-.91.917-.91.503 0 .917.408.917.91 0 .503-.414.91-.917.91zm-.014 10.861a.917.917 0 01-.903-.917v-7.2a.917.917 0 111.834 0v7.2c0 .512-.42.925-.931.917zM90.123 45.466a.906.906 0 01-.906-.907v-7.232a.91.91 0 01.91-.91h.707c.112 0 .203.09.203.202 0 .2.29.3.44.167.087-.076.179-.147.276-.211a1.748 1.748 0 011.01-.258c.23 0 .457.038.674.114.23.075.44.206.609.38.191.205.335.45.422.717.116.326.172.67.165 1.017v6.018a.903.903 0 01-1.805 0v-5.366c.02-.28-.062-.557-.23-.781a.79.79 0 00-.295-.223.978.978 0 00-.767-.002.759.759 0 00-.313.26 1.777 1.777 0 00-.194.925v5.183c0 .5-.405.907-.906.907zM101.391 39.836a1.807 1.807 0 01-1.807 1.775h-.574c-.68 0-1.232.552-1.232 1.233a.86.86 0 00.244.659.895.895 0 00.244.157c.25.108.551.133.803.027a.716.716 0 00.314-.256c.184-.318.479-.609.846-.609h.215c.513 0 .954.414.801.904a2.601 2.601 0 01-.601 1.023c-.242.25-.532.448-.853.58-.356.147-.74.22-1.125.216a2.78 2.78 0 01-1.432-.351 2.522 2.522 0 01-.889-.946 2.379 2.379 0 01-.265-.817 6.355 6.355 0 01-.072-1.017v-2.966c-.003-.34.02-.681.072-1.018a2.38 2.38 0 01.265-.845c.215-.392.531-.72.917-.946a2.78 2.78 0 011.433-.35c.388-.009.773.062 1.132.207.323.136.615.336.86.587.489.554.746 1.275.716 2.014l-.012.739zm-3.613-.553a.896.896 0 101.791 0v-.122a1.11 1.11 0 00-.236-.774.847.847 0 00-.652-.258.829.829 0 00-.645.258 1.082 1.082 0 00-.258.774v.122z" fill="#fff"/><defs><filter id="filter0_d" x="0" y="0" width="131" height="60" filterUnits="userSpaceOnUse" color-interpolation-filters="sRGB"><feFlood flood-opacity="0" result="BackgroundImageFix"/><feColorMatrix in="SourceAlpha" values="0 0 0 0 0 0 0 0 0 0 0 0 0 0 0 0 0 0 127 0"/><feOffset dy="2"/><feGaussianBlur stdDeviation="2"/><feColorMatrix values="0 0 0 0 0 0 0 0 0 0 0 0 0 0 0 0 0 0 0.24 0"/><feBlend in2="BackgroundImageFix" result="effect1_dropShadow"/><feBlend in="SourceGraphic" in2="effect1_dropShadow" result="shape"/></filter></defs></svg>
